img/img-5 1.svg

<svg width="588" height="409" viewBox="0 0 588 409" fill="none" xmlns="http://www.w3.org/2000/svg">
<g id="img-5 1" clip-path="url(#clip0)">
<g id="rest">
<path id="Vector" d="M117.155 409C181.858 409 234.31 405.017 234.31 400.104C234.31 395.191 181.858 391.209 117.155 391.209C52.4521 391.209 0 395.191 0 400.104C0 405.017 52.4521 409 117.155 409Z" fill="#E6E6E6"/>
<path id="Vector_2" d="M89.5512 90.7499C109.94 82.0802 135.334 87.5732 160.134 91.3856C160.365 86.7688 163.162 81.1499 160.232 77.9289C156.672 74.0157 157 69.9041 159.142 65.7687C164.62 55.194 156.771 43.942 148.847 34.5861C147.061 32.482 144.803 30.8289 142.258 29.7608C139.713 28.6928 136.952 28.2401 134.199 28.4393L119.519 29.4876C115.947 29.7427 112.538 31.0824 109.748 33.3273C106.958 35.5723 104.921 38.6156 103.908 42.0498V42.0498C100.403 46.8158 98.5272 51.5686 99.7084 56.2966C94.4581 59.8836 93.576 64.2135 95.9353 69.0947C97.9358 72.1681 97.9145 75.1598 95.8443 78.0687C93.1254 81.7772 91.043 85.9124 89.6824 90.3047L89.5512 90.7499Z" fill="#2F2E41"/>
<path id="Vector_3" d="M574.067 353.574H158.524C154.828 353.574 151.284 352.106 148.671 349.494C146.058 346.882 144.59 343.338 144.59 339.644C295.224 322.142 443.028 322.142 588 339.644C588 343.338 586.532 346.882 583.919 349.494C581.306 352.106 577.762 353.574 574.067 353.574Z" fill="#2F2E41"/>
<path id="Vector_4" d="M588 340.463L144.59 339.644L195.98 253.197L196.226 252.787V62.2667C196.225 59.9542 196.681 57.6643 197.566 55.5278C198.451 53.3913 199.749 51.45 201.384 49.8148C203.02 48.1796 204.961 46.8826 207.099 45.9977C209.236 45.1128 211.526 44.6575 213.839 44.6577H516.292C518.605 44.6575 520.896 45.1128 523.033 45.9977C525.17 46.8826 527.112 48.1796 528.747 49.8148C530.383 51.45 531.68 53.3913 532.565 55.5278C533.45 57.6643 533.906 59.9542 533.906 62.2667V254.098L588 340.463Z" fill="#3F3D56"/>
<path id="Vector_5" d="M213.438 56.9488C211.916 56.9505 210.458 57.5553 209.383 58.6306C208.307 59.7059 207.702 61.1639 207.7 62.6846V236.399C207.702 237.919 208.307 239.377 209.383 240.453C210.458 241.528 211.916 242.133 213.438 242.135H519.153C520.674 242.133 522.132 241.528 523.207 240.453C524.283 239.377 524.888 237.919 524.89 236.399V62.6846C524.888 61.1639 524.283 59.706 523.208 58.6307C522.132 57.5554 520.674 56.9505 519.153 56.9488H213.438Z" fill="white"/>
<path id="Vector_6" d="M214.719 265.078C214.249 265.079 213.789 265.214 213.393 265.467C212.997 265.721 212.682 266.082 212.485 266.509L196.65 300.924C196.478 301.298 196.402 301.71 196.431 302.121C196.459 302.533 196.591 302.93 196.813 303.277C197.036 303.625 197.342 303.91 197.704 304.108C198.065 304.306 198.471 304.41 198.883 304.41H531.88C532.299 304.41 532.711 304.302 533.077 304.098C533.443 303.894 533.751 303.6 533.971 303.244C534.192 302.887 534.317 302.48 534.336 302.062C534.355 301.643 534.266 301.227 534.079 300.852L516.867 266.437C516.664 266.028 516.35 265.684 515.962 265.443C515.573 265.203 515.125 265.077 514.668 265.078H214.719Z" fill="#2F2E41"/>
<path id="Vector_7" d="M365.066 54.0808C367.103 54.0808 368.754 52.43 368.754 50.3935C368.754 48.3571 367.103 46.7062 365.066 46.7062C363.029 46.7062 361.377 48.3571 361.377 50.3935C361.377 52.43 363.029 54.0808 365.066 54.0808Z" fill="white"/>
<path id="Vector_8" d="M332.335 310.965C331.794 310.965 331.269 311.144 330.84 311.473C330.411 311.801 330.102 312.262 329.961 312.784L325.989 327.533C325.891 327.897 325.878 328.279 325.951 328.649C326.024 329.02 326.182 329.368 326.411 329.668C326.641 329.967 326.936 330.21 327.275 330.377C327.613 330.544 327.985 330.631 328.363 330.631H403.901C404.293 330.631 404.679 330.537 405.028 330.357C405.376 330.178 405.677 329.917 405.904 329.598C406.131 329.279 406.279 328.91 406.335 328.522C406.39 328.134 406.352 327.738 406.224 327.368L401.117 312.619C400.95 312.136 400.636 311.717 400.22 311.421C399.803 311.124 399.305 310.965 398.794 310.965H332.335Z" fill="#2F2E41"/>
<path id="Vector_9" d="M533.906 249.919V253.196H195.98L196.234 252.787V249.919H533.906Z" fill="#2F2E41"/>
<path id="Vector_10" d="M524.48 67.1913C526.291 67.1913 527.759 65.7239 527.759 63.9137C527.759 62.1035 526.291 60.6361 524.48 60.6361C522.669 60.6361 521.202 62.1035 521.202 63.9137C521.202 65.7239 522.669 67.1913 524.48 67.1913Z" fill="white"/>
<path id="Vector_11" d="M484.429 183.213H248.161C247.001 183.211 245.889 182.75 245.069 181.93C244.249 181.11 243.787 179.998 243.786 178.838V120.245C243.787 119.085 244.249 117.974 245.069 117.153C245.889 116.333 247.001 115.872 248.161 115.871H484.429C485.589 115.872 486.701 116.333 487.521 117.153C488.341 117.974 488.803 119.085 488.804 120.245V178.838C488.803 179.998 488.341 181.11 487.521 181.93C486.701 182.75 485.589 183.211 484.429 183.213V183.213ZM248.161 117.621C247.465 117.621 246.798 117.898 246.306 118.39C245.814 118.882 245.537 119.549 245.536 120.245V178.838C245.537 179.534 245.814 180.201 246.306 180.693C246.798 181.185 247.465 181.462 248.161 181.463H484.429C485.125 181.462 485.792 181.185 486.284 180.693C486.776 180.201 487.053 179.534 487.054 178.838V120.245C487.053 119.549 486.776 118.882 486.284 118.39C485.792 117.898 485.125 117.621 484.429 117.621L248.161 117.621Z" fill="#E6E6E6"/>
<path id="Vector_12" d="M195.398 154.434L151.722 177.649L151.17 158.303C165.425 155.924 178.988 151.782 191.528 145.038L196.096 133.755C196.594 132.526 197.403 131.447 198.444 130.625C199.485 129.802 200.721 129.264 202.033 129.064C203.344 128.864 204.685 129.008 205.924 129.483C207.163 129.957 208.257 130.745 209.099 131.77V131.77C210.331 133.27 210.947 135.181 210.822 137.118C210.697 139.054 209.84 140.871 208.426 142.199L195.398 154.434Z" fill="#FFB8B8"/>
<path id="Vector_13" d="M88.6806 288.465C88.362 287.297 88.2943 286.074 88.4821 284.878C88.6699 283.682 89.1088 282.539 89.7701 281.524L99.3644 266.804C101.634 263.322 105.116 260.807 109.135 259.747C113.154 258.687 117.424 259.157 121.116 261.067V261.067C117.084 267.928 117.646 273.948 122.509 279.179C114.96 282.863 107.983 287.619 101.794 293.297C100.664 294.067 99.367 294.556 98.0099 294.724C96.6528 294.891 95.2754 294.731 93.9924 294.259C92.7094 293.786 91.5579 293.013 90.634 292.006C89.71 290.998 89.0403 289.784 88.6806 288.465V288.465Z" fill="#2F2E41"/>
<path id="Vector_14" d="M197.388 269.218C195.936 271.637 193.886 273.642 191.436 275.042C188.986 276.441 186.217 277.187 183.395 277.208L119.657 277.691L116.892 261.662L145.088 253.371L121.315 235.132L147.3 204.732L194.495 248.709C197.254 251.279 199.046 254.719 199.573 258.452C200.099 262.185 199.328 265.985 197.388 269.218V269.218Z" fill="#2F2E41"/>
<path id="Vector_15" d="M109.705 378.839H94.7779C81.3755 286.993 67.733 194.891 108.047 160.514L155.592 168.252L149.511 208.601L122.974 239.001L109.705 378.839Z" fill="#2F2E41"/>
<path id="Vector_16" d="M122.827 399.645C121.658 399.964 120.436 400.031 119.239 399.844C118.042 399.656 116.899 399.217 115.884 398.556L99.6763 396.378C96.1936 394.11 93.6778 390.629 92.6172 386.61C91.5566 382.592 92.0268 378.323 93.9365 374.632C100.8 378.663 106.821 378.101 112.054 373.239C115.751 380.702 121.842 380.247 127.659 386.534C128.43 387.664 128.919 388.961 129.086 390.318C129.253 391.674 129.094 393.051 128.621 394.334C128.149 395.617 127.376 396.768 126.368 397.692C125.36 398.616 124.146 399.285 122.827 399.645V399.645Z" fill="#2F2E41"/>
<path id="Vector_17" d="M145.088 99.1621L117.445 92.5294C122.036 83.1342 122.414 72.6801 120.209 61.577L139.007 61.0243C139.596 74.8313 141.378 87.7306 145.088 99.1621Z" fill="#FFB8B8"/>
<path id="Vector_18" d="M152.685 184.894C132.562 198.603 118.344 185.363 107.494 164.936C109.001 152.436 106.56 137.478 102.039 121.224C100.028 114.055 100.779 106.393 104.143 99.7502C107.507 93.1076 113.24 87.9672 120.209 85.3441V85.3441L143.982 95.2931C164.168 111.743 168.142 129.561 160.568 148.354L152.685 184.894Z" fill="#6C63FF"/>
<path id="Vector_19" d="M94.7779 112.98L72.6635 124.587L111.917 147.802L117.378 161.271C117.743 162.17 117.92 163.133 117.9 164.103C117.88 165.073 117.663 166.029 117.261 166.912C116.859 167.795 116.282 168.587 115.564 169.239C114.846 169.892 114.003 170.392 113.086 170.708V170.708C112.043 171.068 110.931 171.181 109.837 171.039C108.744 170.897 107.697 170.504 106.781 169.891C105.864 169.277 105.102 168.46 104.555 167.503C104.007 166.546 103.688 165.475 103.623 164.374L103.071 154.987L53.1807 138.527C51.4998 137.973 49.9671 137.043 48.6988 135.809C47.4305 134.574 46.4598 133.067 45.8602 131.402V131.402C44.9863 128.975 44.9418 126.327 45.7337 123.872C46.5257 121.417 48.1093 119.294 50.2369 117.835L90.355 90.3186L94.7779 112.98Z" fill="#FFB8B8"/>
<path id="Vector_20" d="M116.892 115.191C107.669 111.15 99.2824 115.54 88.6965 119.06L87.0379 89.7658C97.5493 84.1648 107.571 82.6546 116.892 87.0022L116.892 115.191Z" fill="#6C63FF"/>
<path id="Vector_21" d="M127.925 75.5347C137.672 75.5347 145.574 67.635 145.574 57.8902C145.574 48.1454 137.672 40.2456 127.925 40.2456C118.178 40.2456 110.276 48.1454 110.276 57.8902C110.276 67.635 118.178 75.5347 127.925 75.5347Z" fill="#FFB8B8"/>
<path id="Vector_22" d="M149.039 55.6639C131.565 57.3749 118.25 54.5178 109.74 46.3827V39.8313H147.556L149.039 55.6639Z" fill="#2F2E41"/>
</g>
<g id="content">
<path id="Vector_23" d="M284.872 165.112C294.716 165.112 302.695 157.134 302.695 147.293C302.695 137.453 294.716 129.475 284.872 129.475C275.029 129.475 267.05 137.453 267.05 147.293C267.05 157.134 275.029 165.112 284.872 165.112Z" fill="#E6E6E6"/>
<path id="Vector_24" d="M326.035 135.415C325.644 135.414 325.257 135.49 324.896 135.639C324.535 135.788 324.207 136.007 323.931 136.283C323.655 136.559 323.436 136.886 323.286 137.247C323.136 137.607 323.059 137.994 323.059 138.384C323.059 138.775 323.136 139.161 323.286 139.522C323.436 139.882 323.655 140.21 323.931 140.486C324.207 140.762 324.535 140.98 324.896 141.129C325.257 141.278 325.644 141.355 326.035 141.354H466.07C466.858 141.354 467.614 141.041 468.171 140.484C468.728 139.927 469.041 139.172 469.041 138.384C469.041 137.597 468.728 136.841 468.171 136.284C467.614 135.727 466.858 135.415 466.07 135.415H326.035Z" fill="#E6E6E6"/>
<path id="Vector_25" d="M326.035 153.233C325.247 153.233 324.491 153.546 323.934 154.103C323.377 154.66 323.064 155.415 323.064 156.203C323.064 156.99 323.377 157.746 323.934 158.303C324.491 158.859 325.247 159.172 326.035 159.172H386.292C387.08 159.172 387.836 158.859 388.393 158.303C388.95 157.746 389.263 156.99 389.263 156.203C389.263 155.415 388.95 154.66 388.393 154.103C387.836 153.546 387.08 153.233 386.292 153.233H326.035Z" fill="#E6E6E6"/>
</g>
<g id="lock">
<path id="Vector_26" d="M369.373 204.717C401.059 204.717 426.746 179.037 426.746 147.358C426.746 115.68 401.059 90 369.373 90C337.687 90 312 115.68 312 147.358C312 179.037 337.687 204.717 369.373 204.717Z" fill="#6C63FF"/>
<path id="Vector_27" d="M393.142 172.35H345.604C344.735 172.35 343.901 172.004 343.287 171.389C342.672 170.775 342.326 169.942 342.326 169.073V140.393C342.327 139.525 342.672 138.691 343.287 138.077C343.902 137.462 344.735 137.117 345.604 137.116H393.142C394.011 137.117 394.844 137.462 395.459 138.077C396.073 138.691 396.419 139.525 396.42 140.393V169.073C396.419 169.942 396.073 170.775 395.459 171.389C394.844 172.004 394.011 172.35 393.142 172.35ZM345.604 140.394V169.073H393.144L393.142 140.393L345.604 140.394Z" fill="white"/>
<path id="Vector_28" d="M384.126 140.393H354.62V127.283C354.62 117.787 360.824 110.895 369.373 110.895C377.921 110.895 384.126 117.787 384.126 127.283L384.126 140.393ZM357.898 137.116H380.847V127.283C380.847 119.564 376.129 114.172 369.373 114.172C362.617 114.172 357.898 119.564 357.898 127.283L357.898 137.116Z" fill="white"/>
</g>
</g>
<defs>
<clipPath id="clip0">
<rect width="588" height="409" fill="white"/>
</clipPath>
</defs>
</svg>

<svg xmlns="http://www.w3.org/2000/svg" width="588" height="409" fill="none" xmlns:v="https://vecta.io/nano"><g clip-path="url(#A)"><path d="M117.155 409c64.703 0 117.155-3.983 117.155-8.896s-52.452-8.895-117.155-8.895S0 395.19 0 400.104 52.452 409 117.155 409z" fill="#e6e6e6"/><g fill="#2f2e41"><path d="M89.55 90.75c20.4-8.67 45.783-3.177 70.583.636.23-4.617 3.028-10.236.098-13.457-3.56-3.913-3.232-8.025-1.1-12.16 5.478-10.575-2.37-21.827-10.295-31.183a17.55 17.55 0 0 0-6.589-4.825 17.57 17.57 0 0 0-8.06-1.322l-14.68 1.048a17.58 17.58 0 0 0-15.61 12.562h0c-3.505 4.766-5.38 9.52-4.2 14.247-5.25 3.587-6.132 7.917-3.773 12.798 2 3.073 1.98 6.065-.1 8.974a41.43 41.43 0 0 0-6.162 12.236l-.13.445zm484.517 262.824H158.524c-3.696 0-7.24-1.468-9.853-4.08a13.93 13.93 0 0 1-4.081-9.85c150.634-17.502 298.438-17.502 443.4 0a13.93 13.93 0 0 1-4.081 9.85c-2.613 2.612-6.157 4.08-9.852 4.08z"/></g><path d="M588 340.463l-443.4-.82 51.636-86.857V62.267a17.59 17.59 0 0 1 1.34-6.739c.885-2.136 2.183-4.078 3.818-5.713a17.61 17.61 0 0 1 12.455-5.157h302.453c2.313 0 4.604.455 6.74 1.34s4.08 2.182 5.714 3.817a17.6 17.6 0 0 1 3.818 5.713 17.61 17.61 0 0 1 1.341 6.739v191.83L588 340.463z" fill="#3f3d56"/><path d="M213.438 56.95a5.74 5.74 0 0 0-5.738 5.736V236.4c.002 1.52.607 2.978 1.683 4.054s2.533 1.68 4.055 1.682h305.715c1.52-.002 2.98-.607 4.054-1.682s1.68-2.534 1.683-4.054V62.685c-.002-1.52-.607-2.98-1.682-4.054s-2.534-1.68-4.055-1.682H213.438z" fill="#fff"/><path d="M214.72 265.078c-.47.001-.93.136-1.326.39s-.71.615-.908 1.042l-15.835 34.415c-.172.374-.248.786-.22 1.197s.16.81.382 1.156a2.46 2.46 0 0 0 .891.831c.36.198.767.302 1.18.302H531.88a2.46 2.46 0 0 0 1.197-.312c.366-.204.674-.498.894-.854s.346-.764.365-1.182a2.46 2.46 0 0 0-.257-1.21l-17.212-34.415c-.203-.41-.517-.753-.905-.994s-.837-.366-1.294-.365H214.72z" fill="#2f2e41"/><path d="M365.066 54.08a3.69 3.69 0 0 0 3.688-3.687 3.69 3.69 0 0 0-3.688-3.687 3.69 3.69 0 0 0-3.689 3.687 3.69 3.69 0 0 0 3.689 3.687z" fill="#fff"/><g fill="#2f2e41"><path d="M332.335 310.965c-.54 0-1.066.18-1.495.508a2.47 2.47 0 0 0-.88 1.31l-3.972 14.75a2.46 2.46 0 0 0 .422 2.136c.23.3.525.542.864.7s.7.254 1.088.254H403.9a2.46 2.46 0 0 0 1.127-.274 2.45 2.45 0 0 0 .876-.76c.226-.32.375-.688.43-1.076a2.47 2.47 0 0 0-.111-1.154l-5.107-14.75a2.45 2.45 0 0 0-.897-1.198c-.417-.296-.915-.456-1.426-.456h-66.46zm201.57-61.045v3.277H195.98l.254-.4v-2.868h337.672z"/></g><path d="M524.48 67.19a3.28 3.28 0 0 0 3.279-3.278 3.28 3.28 0 0 0-3.279-3.278 3.28 3.28 0 0 0-3.278 3.278 3.28 3.28 0 0 0 3.278 3.278z" fill="#fff"/><path d="M484.43 183.213H248.16c-1.16-.002-2.272-.463-3.092-1.283a4.38 4.38 0 0 1-1.283-3.092v-58.593a4.38 4.38 0 0 1 4.375-4.374H484.43a4.38 4.38 0 0 1 4.375 4.374v58.593a4.38 4.38 0 0 1-1.283 3.092c-.82.82-1.932 1.28-3.092 1.283h0zM248.16 117.62c-.696 0-1.363.277-1.855.77a2.63 2.63 0 0 0-.77 1.855v58.593a2.63 2.63 0 0 0 2.625 2.625H484.43a2.63 2.63 0 0 0 2.625-2.625v-58.593a2.63 2.63 0 0 0-.77-1.855c-.492-.492-1.16-.77-1.855-.77H248.16z" fill="#e6e6e6"/><path d="M195.398 154.434l-43.676 23.215-.552-19.346c14.255-2.38 27.818-6.52 40.358-13.265l4.568-11.283a7.65 7.65 0 0 1 2.348-3.13c1.04-.823 2.277-1.36 3.59-1.56a7.65 7.65 0 0 1 3.891.419 7.64 7.64 0 0 1 3.175 2.287h0a7.65 7.65 0 0 1-.673 10.429l-13.028 12.235z" fill="#ffb8b8"/><g fill="#2f2e41"><path d="M88.68 288.465c-.32-1.168-.386-2.39-.198-3.587s.627-2.34 1.288-3.354l9.594-14.72c2.27-3.482 5.752-5.997 9.77-7.057a16.77 16.77 0 0 1 11.981 1.32h0c-4.032 6.86-3.47 12.88 1.393 18.112a87.24 87.24 0 0 0-20.715 14.118c-1.13.77-2.427 1.26-3.784 1.427s-2.734.007-4.017-.465a8.59 8.59 0 0 1-3.358-2.253 8.58 8.58 0 0 1-1.953-3.541h0z"/><path d="M197.388 269.218c-1.452 2.42-3.502 4.424-5.952 5.824s-5.22 2.145-8.04 2.166l-63.738.483-2.765-16.03 28.196-8.29-23.773-18.24 25.985-30.4 47.195 43.977a16.46 16.46 0 0 1 2.893 20.509h0z"/><path d="M109.705 378.84H94.778c-13.402-91.846-27.045-183.948 13.27-218.325l47.545 7.738-6.08 40.35-26.537 30.4-13.27 139.838z"/><path d="M122.827 399.645a8.59 8.59 0 0 1-6.943-1.089l-16.208-2.178a16.76 16.76 0 0 1-5.74-21.746c6.864 4.03 12.885 3.47 18.118-1.393 3.697 7.463 9.788 7.008 15.605 13.295a8.57 8.57 0 0 1 1.427 3.784 8.58 8.58 0 0 1-.465 4.016 8.57 8.57 0 0 1-2.253 3.358c-1.008.924-2.222 1.593-3.54 1.953h0z"/></g><path d="M145.088 99.162l-27.643-6.633c4.59-9.395 4.97-19.85 2.764-30.952l18.798-.553c.59 13.807 2.37 26.706 6.08 38.138z" fill="#ffb8b8"/><path d="M152.685 184.894c-20.123 13.71-34.34.47-45.19-19.958 1.507-12.5-.934-27.458-5.455-43.712-2.01-7.17-1.26-14.83 2.104-21.474a29.76 29.76 0 0 1 16.066-14.406h0l23.773 9.95c20.186 16.45 24.16 34.268 16.586 53.06l-7.883 36.54z" fill="#6c63ff"/><path d="M94.778 112.98l-22.114 11.607 39.254 23.215 5.46 13.47c.365.9.542 1.862.522 2.832s-.237 1.926-.64 2.81-.98 1.675-1.697 2.327a7.14 7.14 0 0 1-2.478 1.469h0a7.14 7.14 0 0 1-3.249.331c-1.093-.142-2.14-.535-3.056-1.148s-1.68-1.43-2.226-2.388-.867-2.028-.932-3.13l-.552-9.387-49.9-16.46c-1.68-.554-3.214-1.484-4.482-2.718a11.67 11.67 0 0 1-2.839-4.407h0a11.66 11.66 0 0 1 4.377-13.567L90.355 90.32l4.423 22.66z" fill="#ffb8b8"/><path d="M116.892 115.19c-9.223-4.04-17.6.35-28.195 3.87l-1.66-29.294c10.51-5.6 20.533-7.11 29.854-2.764v28.19z" fill="#6c63ff"/><path d="M127.925 75.535a17.65 17.65 0 0 0 17.649-17.644 17.65 17.65 0 0 0-17.649-17.645 17.65 17.65 0 0 0-17.649 17.645 17.65 17.65 0 0 0 17.649 17.645z" fill="#ffb8b8"/><path d="M149.04 55.664c-17.474 1.71-30.79-1.146-39.3-9.28v-6.55h37.816l1.483 15.833z" fill="#2f2e41"/><g fill="#e6e6e6"><path d="M284.872 165.112c9.844 0 17.823-7.978 17.823-17.82s-7.98-17.818-17.823-17.818-17.822 7.978-17.822 17.818 7.98 17.82 17.822 17.82zm41.163-29.697c-.4-.001-.778.075-1.14.224s-.7.368-.965.644a2.98 2.98 0 0 0-.645.964 2.96 2.96 0 0 0-.227 1.137c0 .4.077.777.227 1.138a2.99 2.99 0 0 0 .645.964 2.96 2.96 0 0 0 .965.643c.36.15.748.226 1.14.225H466.07a2.97 2.97 0 0 0 2.971-2.97 2.97 2.97 0 0 0-2.971-2.969H326.035zm0 17.818a2.97 2.97 0 0 0-2.101 5.07c.557.556 1.313.87 2.1.87h60.257c.788 0 1.544-.313 2.1-.87a2.97 2.97 0 0 0-2.101-5.07h-60.257z"/></g><path d="M369.373 204.717c31.686 0 57.373-25.68 57.373-57.36S401.06 90 369.373 90 312 115.68 312 147.358s25.687 57.36 57.373 57.36z" fill="#6c63ff"/><g fill="#fff"><path d="M393.142 172.35h-47.538c-.87 0-1.703-.346-2.317-.96s-.96-1.447-.96-2.316v-28.68a3.28 3.28 0 0 1 3.278-3.277h47.538a3.28 3.28 0 0 1 2.317.961c.614.614.96 1.448.96 2.316v28.68a3.28 3.28 0 0 1-.961 2.316c-.615.615-1.448.96-2.317.96zm-47.538-31.956v28.68h47.54l-.002-28.68-47.538.001z"/><path d="M384.126 140.393H354.62v-13.1c0-9.496 6.204-16.388 14.753-16.388s14.753 6.892 14.753 16.388v13.1zm-26.228-3.277h22.95v-9.833c0-7.72-4.718-13.11-11.474-13.11s-11.475 5.392-11.475 13.11v9.833z"/></g></g><defs><clipPath id="A"><path fill="#fff" d="M0 0h588v409H0z"/></clipPath></defs></svg>
